X:1
T:Title
%%score { ( 1 3 ) | ( 2 4 ) }
L:1/8
M:6/8
K:C
V:1 treble nm="Grand Piano"
V:3 treble 
V:2 bass 
V:4 bass 
V:1
 z3 z2[Q:1/4=92] [EG] | [EG][CE][DF] [EG][Ec][GB] | [FA]3- [FA]2 [FA] | [EG][FA][EG] [Gc][FB][Ec] | %4
[M:5/8] [Fd]-[Fd]- [Fd]3 |[M:1/8] [B,FG] |[M:3/4] [CEG][G,CE] [G,DF][CEG] [CEc][CGB] | %7
 F3- [Fd]2 c | BB B[DB] [CEc][B,Fd] |[M:5/8] [CEc]-[CEc]- [CEc]3 |[M:1/8] [Ec] |[M:3/4] Bc dd cB | %12
 [Ec]3 [EG]2 [EG] | AA A[^FA] [GB][Ac] |[M:5/8] [GB]-[GB]- [GB]3 |[M:1/8] [FG] | %16
[M:3/4] [EG][CE] [DF][EG] [Ec][GB] | A3 d2 c | BB B[DB] [CEc][B,Fd] |[M:5/8] [CEc]-[CEc]- [CEc]3 |] %20
V:2
 z3 z2 [C,C] | [C,C][C,G,][C,G,] [C,C][C,C][E,C] | [F,C]3- [F,C]2 [F,C] | %3
 [C,C][C,C][C,C] [E,G,][D,G,][C,C] |[M:5/8] [G,B,]-[G,B,]- [G,B,]3 |[M:1/8] G, | %6
[M:3/4] C,C, C,C, C,E, | z2 z A,2 [F,A,E] | [G,D][G,D] [G,D][G,,G,] G,,G,, |[M:5/8] C,-C,- C,3 | %10
[M:1/8] [C,G,] |[M:3/4][K:treble] [G,D][G,CE] [G,B,F][G,B,F] [G,CE][K:bass][G,D] | %12
 [C,C]3 [C,C]2 [C,C] | [F,CF][F,CF] [F,CF][D,D] [D,D][D,D] |[M:5/8] [G,D]-[G,D]- [G,D]3 | %15
[M:1/8] [G,B,] |[M:3/4] [C,C][C,G,] [C,G,][C,C] [C,C][E,C] | [F,CF]3 [F,A,F]2 [F,A,E] | %18
 [G,D][G,D] [G,D][G,,G,] G,,G,, |[M:5/8] C,-C,- C,3 |] %20
V:3
 x6 | x6 | x6 | x6 |[M:5/8] x5 |[M:1/8] x |[M:3/4] x6 | [CA]4 z2 | x6 |[M:5/8] x5 |[M:1/8] x | %11
[M:3/4] x6 | x6 | x6 |[M:5/8] x5 |[M:1/8] x |[M:3/4] x6 | x6 | x6 |[M:5/8] x5 |] %20
V:4
 x6 | x6 | x6 | x6 |[M:5/8] x5 |[M:1/8] x |[M:3/4] x6 | F,6 | x6 |[M:5/8] x5 |[M:1/8] x | %11
[M:3/4][K:treble] x5[K:bass] x | x6 | x6 |[M:5/8] x5 |[M:1/8] x |[M:3/4] x6 | x6 | x6 | %19
[M:5/8] x5 |] %20

